X: 12691
T: Father Dollard's
R: hornpipe
M: 4/4
K: Dmajor
FE|D2 (3DDD DFAB|d2 fe dcBA|FA ~A2 dAfA|(3Bcd AF GEFE|
D2 (3DDD DFAB|d2 fe dcBA|FA ~A2 (3Bcd GE|F2 DE D2:|
|:de|fddc d3 e|fd ~d2 bgaf|gece Acef|g3 b agfe|
Ad ~d2 (3Bcd AF|Ad ~d2 fdBd|Adfa geAc|(3efe dc d2:|

